html/images/icon-brand-item-2.svg

<svg width="175" height="18" viewBox="0 0 175 18" fill="none" xmlns="http://www.w3.org/2000/svg">
<path fill-rule="evenodd" clip-rule="evenodd" d="M1.67188 1.77215H3.89041H4.06831H7.26248C11.1691 1.77215 14.4526 4.9742 14.4526 9.00193C14.4526 12.9462 11.1683 16.1482 7.26248 16.2317H4.06831H3.80186H1.67188V1.77215ZM4.06831 3.4965V14.5066H6.64185C10.1926 14.4231 11.9668 11.7956 11.9668 9.08166C11.9668 6.28722 10.1918 3.98758 7.26248 3.57624L4.06831 3.4965ZM23.8612 1.44054C28.6549 1.44054 32.4697 4.80952 32.4697 9.00118C32.4697 13.1891 28.6541 16.5588 23.8612 16.5588C19.1569 16.5588 15.2528 13.1899 15.2528 9.00118C15.2519 4.81026 19.1569 1.44054 23.8612 1.44054ZM23.8612 3.2491C27.3235 3.2491 30.1626 5.79614 30.1626 9.00193C30.1626 12.1235 27.3235 14.6705 23.8612 14.6705C20.4892 14.6705 17.6476 12.1235 17.6476 9.00193C17.6476 5.79614 20.4884 3.2491 23.8612 3.2491ZM33.1805 1.77215H35.4876V14.5073H39.9255V16.2317H35.4876H34.4234H33.1805V1.77215ZM47.3812 1.3608C49.1562 1.3608 50.8435 1.85188 52.2626 2.67456V5.30507C51.1075 3.98758 49.3333 3.16564 47.3812 3.16564C43.919 3.16564 41.1676 5.79614 41.1676 9.00193C41.1676 12.1235 43.919 14.751 47.3812 14.751C49.3341 14.751 51.1083 13.9321 52.2626 12.6153V15.3263C50.8427 16.149 49.1554 16.6438 47.3812 16.6438C42.6769 16.6438 38.7727 13.1906 38.7727 9.00267C38.7727 4.81026 42.6777 1.3608 47.3812 1.3608ZM55.3691 14.5066H60.9613V16.231H55.3691H52.9726V14.5066V9.41252V7.68444V3.41304V1.77215H55.3691H60.9613V3.41304H55.3691V7.68444H60.9613V9.41252H55.3691V14.5066ZM69.7485 15.2458C69.482 15.4932 69.2148 15.6572 68.8598 15.8204C68.5933 15.9843 68.2392 16.0678 67.8834 16.1475C67.7948 16.1475 67.7063 16.1475 67.6177 16.231C67.5284 16.231 67.4398 16.231 67.3513 16.231C67.0848 16.231 66.9069 16.1475 66.6405 16.1475C66.374 16.0678 66.1961 15.9836 65.9297 15.8204C65.7526 15.6564 65.5755 15.409 65.3984 15.1616C65.309 14.9179 65.2205 14.6705 65.1319 14.4231V14.3397C65.1319 14.2599 65.1319 14.2599 65.1319 14.2599C65.1319 14.1765 65.1319 14.1765 65.1319 14.1765C65.1319 14.0968 65.1319 14.0968 65.1319 14.0125H65.2205C65.2205 13.9328 65.2205 13.9328 65.2205 13.9328C65.2205 13.9328 65.2205 13.9328 65.2205 13.8493C65.3082 13.438 65.4869 13.1109 65.8411 12.7793C66.1953 12.5356 66.5503 12.2882 66.9061 12.0408C66.729 11.7971 66.5503 11.5497 66.3732 11.3023C66.1953 11.1384 66.1068 10.8112 66.1068 10.5638V10.4804C66.1068 10.4006 66.1068 10.4006 66.1068 10.3164C66.1068 10.233 66.1068 10.233 66.1068 10.233C66.1953 10.233 66.1953 10.1532 66.1953 10.1532C66.2847 9.8261 66.4626 9.5787 66.729 9.33055C67.0832 9.16661 67.3496 9.08315 67.7046 9.08315C67.7046 9.08315 67.7046 9.08315 67.7932 9.08315H67.8817C67.8817 9.08315 67.8817 9.08315 67.9711 9.08315C68.3253 9.08315 68.7696 9.25082 69.1254 9.49449C69.3911 9.74189 69.5682 10.069 69.5682 10.5646C69.5682 10.9759 69.4804 11.3031 69.2132 11.5505C68.8582 11.8776 68.5925 12.125 68.2375 12.2889L69.924 14.1772C70.0125 14.0133 70.1904 13.8501 70.3683 13.6027C70.5454 13.4388 70.634 13.2756 70.8127 13.1116L71.3448 13.6027C71.2562 13.7666 71.0783 13.9336 70.9898 14.0975C70.9012 14.2614 70.7233 14.4246 70.5454 14.5886C70.5454 14.5886 70.5454 14.5886 70.4569 14.672C70.4569 14.672 70.4569 14.7518 70.3683 14.7518L71.6104 16.0693H70.5454L69.7485 15.2458ZM67.7063 15.4932C67.9727 15.4932 68.2392 15.4098 68.5048 15.2458C68.6827 15.0819 68.9483 14.9187 69.1271 14.751C69.2148 14.751 69.2148 14.751 69.2148 14.751C69.2148 14.751 69.2148 14.751 69.3041 14.6713L67.3521 12.6153C67.3521 12.6988 67.3521 12.6988 67.2627 12.6988C67.1742 12.7785 67.1742 12.7785 67.1742 12.7785C66.9963 12.862 66.9077 12.9462 66.7314 13.0259C66.5519 13.1899 66.465 13.2733 66.3756 13.4373C66.2879 13.4373 66.2879 13.5207 66.2879 13.6012C66.1985 13.6847 66.1985 13.7651 66.1985 13.8486C66.11 13.9321 66.11 14.0125 66.11 14.0125C66.11 14.096 66.11 14.1765 66.11 14.2599C66.11 14.5871 66.1985 14.8345 66.4658 15.1624C66.82 15.4098 67.0864 15.4932 67.53 15.4932H67.6193C67.6185 15.4932 67.6185 15.4932 67.7063 15.4932ZM66.9963 10.3991C66.9963 10.4789 66.9963 10.4789 66.9963 10.4789V10.5623C66.9963 10.7263 66.9963 10.8895 67.0856 11.0534C67.1742 11.2174 67.3521 11.3843 67.4398 11.4648C67.5284 11.5482 67.5284 11.5482 67.6177 11.6287L67.7063 11.7122H67.7948C67.7948 11.7122 67.8834 11.7122 67.8834 11.6287C68.0613 11.549 68.2392 11.4648 68.4171 11.3016C68.5942 11.1376 68.6835 10.9744 68.7712 10.727C68.7712 10.6436 68.7712 10.6436 68.7712 10.6436C68.7712 10.5638 68.7712 10.5638 68.7712 10.5638C68.7712 10.3164 68.6827 10.1525 68.5048 9.9893C68.3269 9.90583 68.1506 9.82536 67.9727 9.82536C67.8834 9.82536 67.8834 9.82536 67.8834 9.82536C67.8834 9.82536 67.8833 9.82536 67.7948 9.82536C67.6177 9.82536 67.4398 9.82536 67.2619 9.9893C67.0856 10.0675 66.9963 10.2315 66.9963 10.3991ZM84.1263 1.27734C87.2327 1.27734 89.9842 2.75802 91.5821 4.89447L89.5406 5.88035C88.3871 4.23572 86.4334 3.16564 84.2149 3.16564C80.6649 3.16564 77.9134 5.79614 77.9134 9.00193C77.9134 12.204 80.6649 14.751 84.2149 14.751C87.1442 14.751 89.4513 13.4373 89.63 10.6428H84.5706V8.91846H89.4513C89.4513 8.91846 91.9362 8.91846 92.1158 8.91846C92.1158 8.91846 92.1158 4.48313 92.1158 9.00193C92.1158 13.5207 89.4513 16.7228 84.1271 16.7228C78.8013 16.7228 75.4285 13.2733 75.4285 9.00193C75.4285 4.72606 79.3334 1.27734 84.1263 1.27734ZM90.7827 16.2317L97.2628 1.77215H98.7722L105.25 16.2317H102.766L100.991 12.1235H95.0435L93.2693 16.2317H90.7827ZM95.9322 10.3149L98.0606 5.1374L100.103 10.3149H95.9322ZM127.972 16.2317L134.363 1.77215H135.871L142.35 16.2317H139.866L138.092 12.1235H132.143L130.368 16.2317H127.972ZM133.031 10.3149L135.161 5.1374L137.291 10.3149H133.031ZM158.859 16.2317L165.339 1.77215H166.848L173.328 16.2317H170.841L168.979 12.1235H163.12L161.346 16.2317H158.859ZM164.007 10.3149L166.049 5.1374L168.179 10.3149H164.007ZM110.842 3.41304C112.44 3.57698 112.971 4.15152 112.971 5.63295C112.971 7.03017 111.906 7.76864 110.575 7.76864H108.533V3.41304H110.842ZM111.02 9.493H111.108C112.262 9.493 114.304 9.7404 114.304 12.1235C114.304 14.0118 112.529 14.5066 110.842 14.5066H111.195H108.533V9.49226H110.574H111.02V9.493ZM108.003 16.2317H108.533H111.996C114.748 16.2317 116.79 14.5073 116.79 12.1235C116.79 10.2315 115.546 8.83798 113.771 8.2627C114.748 7.68444 115.281 6.61808 115.281 5.30432C115.281 3.1649 113.771 1.7714 111.375 1.7714C110.131 1.68794 108.801 1.7714 107.559 1.7714H107.468C107.468 1.7714 107.468 1.7714 107.381 1.7714H106.139V16.231H108.003V16.2317ZM122.735 3.41304C124.244 3.57698 124.777 4.15152 124.865 5.63295C124.865 7.03017 123.8 7.76864 122.468 7.76864H120.427V3.41304H122.735ZM122.825 9.493C122.914 9.493 122.914 9.493 122.914 9.493C124.067 9.493 126.107 9.7404 126.107 12.1235C126.107 14.0118 124.332 14.5066 122.646 14.5066H123.09H120.427V9.49226H122.468H122.825V9.493ZM119.806 16.2317H120.427H123.89C126.641 16.2317 128.593 14.5073 128.593 12.1235C128.593 10.2315 127.351 8.83798 125.576 8.2627C126.641 7.68444 127.172 6.61808 127.172 5.30432C127.172 3.1649 125.576 1.7714 123.267 1.7714C121.936 1.68794 120.694 1.7714 119.361 1.7714C119.273 1.7714 119.273 1.7714 119.273 1.7714H119.185H117.943V16.231H119.806V16.2317ZM143.416 1.77215H144.925L155.842 12.4514V1.77215H157.972V16.2317H156.374L145.634 5.6322V16.2317H143.416V1.77215Z" fill="black"/>
</svg>

<svg width="175" height="18" viewBox="0 0 175 18" fill="none" xmlns="http://www.w3.org/2000/svg"><path fill-rule="evenodd" clip-rule="evenodd" d="M1.672 1.772h5.59c3.907 0 7.19 3.202 7.19 7.23 0 3.944-3.284 7.146-7.19 7.23h-5.59V1.772Zm2.396 1.725v11.01h2.574c3.55-.084 5.325-2.711 5.325-5.425 0-2.795-1.775-5.094-4.705-5.506l-3.194-.08ZM23.861 1.44c4.794 0 8.609 3.369 8.609 7.56 0 4.188-3.816 7.558-8.609 7.558-4.704 0-8.608-3.37-8.608-7.558-.001-4.19 3.904-7.56 8.608-7.56Zm0 1.808c3.462 0 6.302 2.547 6.302 5.753 0 3.121-2.84 5.668-6.302 5.668-3.372 0-6.213-2.546-6.213-5.668 0-3.206 2.84-5.753 6.213-5.753Zm9.32-1.477h2.307v12.735h4.438v1.725H33.18V1.772Zm14.2-.411c1.775 0 3.462.49 4.882 1.314v2.63c-1.155-1.317-2.93-2.14-4.882-2.14-3.462 0-6.213 2.631-6.213 5.837 0 3.121 2.751 5.749 6.213 5.749 1.953 0 3.727-.819 4.882-2.136v2.711a9.774 9.774 0 0 1-4.882 1.318c-4.704 0-8.608-3.453-8.608-7.641 0-4.193 3.905-7.642 8.608-7.642Zm7.988 13.146h5.592v1.724h-7.988V1.773h7.987v1.64h-5.59v4.271h5.592v1.729H55.37v5.094Zm14.38.739a3.164 3.164 0 0 1-.89.574c-.266.164-.62.248-.976.328-.088 0-.177 0-.265.083h-.267c-.266 0-.444-.084-.71-.084a2.7 2.7 0 0 1-.711-.327c-.177-.164-.355-.411-.532-.658-.089-.244-.177-.492-.266-.739v-.41h.088v-.163c.088-.411.267-.738.621-1.07.354-.243.71-.49 1.065-.738a118.27 118.27 0 0 1-.533-.739c-.178-.164-.266-.49-.266-.738v-.331c.088 0 .088-.08.088-.08.09-.327.268-.574.534-.822.354-.164.62-.248.976-.248h.267c.353 0 .798.168 1.153.411.266.248.443.575.443 1.07 0 .412-.088.74-.355.986-.355.328-.62.575-.975.739l1.686 1.888c.088-.164.266-.327.444-.574.177-.164.266-.327.445-.491l.532.49c-.089.165-.267.332-.355.495-.089.164-.267.328-.445.492l-.088.083s0 .08-.089.08l1.242 1.317h-1.065l-.796-.823Zm-2.043.247c.267 0 .533-.083.799-.247.178-.164.443-.327.622-.495h.088l.09-.08-1.953-2.056c0 .084 0 .084-.09.084l-.088.08c-.178.083-.266.167-.443.247-.18.164-.266.247-.355.411-.088 0-.088.084-.088.164-.09.084-.09.164-.09.248-.088.083-.088.163-.088.163v.248c0 .327.088.575.356.902.354.248.62.331 1.064.331h.176Zm-.71-5.094v.163c0 .164 0 .328.09.491.088.164.266.331.354.412.088.083.088.083.178.164l.088.083h.089s.088 0 .088-.083c.178-.08.356-.164.534-.327.177-.164.266-.328.354-.575v-.163c0-.248-.088-.412-.266-.575-.178-.083-.354-.164-.532-.164h-.178c-.177 0-.355 0-.533.164a.44.44 0 0 0-.266.41Zm17.13-9.122c3.107 0 5.858 1.481 7.456 3.617l-2.041.986c-1.154-1.644-3.108-2.714-5.326-2.714-3.55 0-6.302 2.63-6.302 5.836 0 3.202 2.752 5.749 6.302 5.749 2.93 0 5.236-1.314 5.415-4.108h-5.06V8.918h7.546v.084c0 4.519-2.665 7.72-7.989 7.72-5.326 0-8.698-3.449-8.698-7.72 0-4.276 3.904-7.725 8.697-7.725Zm6.657 14.955 6.48-14.46h1.51l6.477 14.46h-2.484l-1.775-4.108h-5.948l-1.774 4.108h-2.486Zm5.15-5.917 2.128-5.178 2.042 5.178h-4.17Zm32.039 5.917 6.391-14.46h1.508l6.479 14.46h-2.484l-1.774-4.108h-5.949l-1.775 4.108h-2.396Zm5.059-5.917 2.13-5.178 2.13 5.178h-4.26Zm25.828 5.917 6.48-14.46h1.509l6.48 14.46h-2.487l-1.862-4.108h-5.859l-1.774 4.108h-2.487Zm5.148-5.917 2.042-5.178 2.13 5.178h-4.172Zm-53.165-6.902c1.598.164 2.129.739 2.129 2.22 0 1.397-1.065 2.136-2.396 2.136h-2.042V3.413h2.309Zm.178 6.08h.088c1.154 0 3.196.247 3.196 2.63 0 1.889-1.775 2.384-3.462 2.384h.353-2.662V9.492h2.487v.001Zm-3.017 6.739h3.993c2.752 0 4.794-1.725 4.794-4.108 0-1.893-1.244-3.286-3.019-3.861.977-.579 1.51-1.645 1.51-2.959 0-2.14-1.51-3.533-3.906-3.533-1.244-.083-2.574 0-3.816 0h-1.42v14.46h1.864Zm14.732-12.819c1.509.164 2.042.739 2.13 2.22 0 1.397-1.065 2.136-2.397 2.136h-2.041V3.413h2.308Zm.09 6.08h.089c1.153 0 3.193.247 3.193 2.63 0 1.889-1.775 2.384-3.461 2.384h.444-2.663V9.492h2.398v.001Zm-3.019 6.739h4.084c2.751 0 4.703-1.725 4.703-4.108 0-1.893-1.242-3.286-3.017-3.861 1.065-.579 1.596-1.645 1.596-2.959 0-2.14-1.596-3.533-3.905-3.533-1.331-.083-2.573 0-3.906 0h-1.418v14.46h1.863Zm23.61-14.46h1.509l10.917 10.68V1.771h2.13v14.46h-1.598l-10.74-10.6v10.6h-2.218V1.772Z" fill="#000"/></svg>
